src/lib/packages/icons/src/assets/filled/chat-edit.svg

<svg width="24" height="24" viewBox="0 0 24 24" fill="none" xmlns="http://www.w3.org/2000/svg">
<path d="M12.001 3C7.031 3 3.00197 7.02902 3.00197 11.999C3.00197 13.339 3.30205 14.619 3.83205 15.758C4.04205 16.198 4.04211 16.708 3.89211 17.178L3.05202 19.678C2.79202 20.458 3.54204 21.208 4.32204 20.948L6.82204 20.108C7.29204 19.958 7.80196 19.958 8.24196 20.168C9.38196 20.698 10.662 20.998 12.002 20.998C16.972 20.998 21.001 16.969 21.001 11.999C21 7.02902 16.971 3 12.001 3ZM10.22 16H8.00002V13.78L11.98 9.78003L14.22 12.02L10.22 16ZM15.74 10.51L14.9199 11.32L12.68 9.08002L13.49 8.26001C13.84 7.91001 14.4 7.91001 14.75 8.26001L15.74 9.25C16.09 9.6 16.09 10.16 15.74 10.51Z" fill="currentColor"/>
</svg>

<svg xmlns="http://www.w3.org/2000/svg" width="24" height="24" fill="none"><path fill="currentColor" d="M12.001 3a9 9 0 0 0-8.999 8.999c0 1.34.3 2.62.83 3.759.21.44.21.95.06 1.42l-.84 2.5c-.26.78.49 1.53 1.27 1.27l2.5-.84c.47-.15.98-.15 1.42.06 1.14.53 2.42.83 3.76.83A8.999 8.999 0 1 0 12.001 3ZM10.22 16H8v-2.22l3.98-4 2.24 2.24-4 3.98Zm5.52-5.49-.82.81-2.24-2.24.81-.82c.35-.35.91-.35 1.26 0l.99.99c.35.35.35.91 0 1.26Z"/></svg>
